public/images/intro.svg

<svg xmlns:xlink="http://www.w3.org/1999/xlink" xmlns="http://www.w3.org/2000/svg" viewBox="0 0 303 172" width="360" preserveAspectRatio="xMidYMid meet" class="" fill="none" height="204" ><title>intro-md-beta-logo-dark</title><path fill-rule="evenodd" clip-rule="evenodd" d="M229.565 160.229C262.212 149.245 286.931 118.241 283.39 73.4194C278.009 5.31929 212.365 -11.5738 171.472 8.48673C115.998 35.6999 108.972 40.1612 69.2388 40.1612C39.645 40.1612 9.51317 54.4147 5.74669 92.952C3.01662 120.885 13.9985 145.267 54.6373 157.716C128.599 180.373 198.017 170.844 229.565 160.229Z" fill="#364147"></path><path fill-rule="evenodd" clip-rule="evenodd" d="M131.589 68.9422C131.593 68.9422 131.596 68.9422 131.599 68.9422C137.86 68.9422 142.935 63.6787 142.935 57.1859C142.935 50.6931 137.86 45.4297 131.599 45.4297C126.518 45.4297 122.218 48.8958 120.777 53.6723C120.022 53.4096 119.213 53.2672 118.373 53.2672C114.199 53.2672 110.815 56.7762 110.815 61.1047C110.815 65.4332 114.199 68.9422 118.373 68.9422C118.377 68.9422 118.381 68.9422 118.386 68.9422H131.589Z" fill="#F1F1F2" fill-opacity="0.38"></path><path fill-rule="evenodd" clip-rule="evenodd" d="M105.682 128.716C109.186 128.716 112.026 125.908 112.026 122.446C112.026 118.983 109.186 116.176 105.682 116.176C104.526 116.176 103.442 116.481 102.509 117.015L102.509 116.959C102.509 110.467 97.1831 105.203 90.6129 105.203C85.3224 105.203 80.8385 108.616 79.2925 113.335C78.6052 113.143 77.88 113.041 77.1304 113.041C72.7503 113.041 69.1995 116.55 69.1995 120.878C69.1995 125.207 72.7503 128.716 77.1304 128.716C77.1341 128.716 77.1379 128.716 77.1416 128.716H105.682L105.682 128.716Z" fill="#F1F1F2" fill-opacity="0.38"></path><rect x="0.445307" y="0.549558" width="50.5797" height="100.068" rx="7.5" transform="matrix(0.994522 0.104528 -0.103907 0.994587 10.5547 41.6171)" fill="#0AA0EA" stroke="#316474"></rect><rect x="0.445307" y="0.549558" width="50.4027" height="99.7216" rx="7.5" transform="matrix(0.994522 0.104528 -0.103907 0.994587 10.9258 37.9564)" fill="#EEFAF6" stroke="#316474"></rect><path d="M57.1609 51.7354L48.5917 133.759C48.2761 136.78 45.5713 138.972 42.5503 138.654L9.58089 135.189C6.55997 134.871 4.36688 132.165 4.68251 129.144L13.2517 47.1204C13.5674 44.0992 16.2722 41.9075 19.2931 42.2251L24.5519 42.7778L47.0037 45.1376L52.2625 45.6903C55.2835 46.0078 57.4765 48.7143 57.1609 51.7354Z" fill="#dfedf3" stroke="#316474"></path><path d="M26.2009 102.937C27.0633 103.019 27.9323 103.119 28.8023 103.21C29.0402 101.032 29.2706 98.8437 29.4916 96.6638L26.8817 96.39C26.6438 98.5681 26.4049 100.755 26.2009 102.937ZM23.4704 93.3294L25.7392 91.4955L27.5774 93.7603L28.7118 92.8434L26.8736 90.5775L29.1434 88.7438L28.2248 87.6114L25.955 89.4452L24.1179 87.1806L22.9824 88.0974L24.8207 90.3621L22.5508 92.197L23.4704 93.3294ZM22.6545 98.6148C22.5261 99.9153 22.3893 101.215 22.244 102.514C23.1206 102.623 23.9924 102.697 24.8699 102.798C25.0164 101.488 25.1451 100.184 25.2831 98.8734C24.4047 98.7813 23.5298 98.6551 22.6545 98.6148ZM39.502 89.7779C38.9965 94.579 38.4833 99.3707 37.9862 104.174C38.8656 104.257 39.7337 104.366 40.614 104.441C41.1101 99.6473 41.6138 94.8633 42.1271 90.0705C41.2625 89.9282 40.3796 89.8786 39.502 89.7779ZM35.2378 92.4459C34.8492 96.2179 34.4351 99.9873 34.0551 103.76C34.925 103.851 35.7959 103.934 36.6564 104.033C37.1028 100.121 37.482 96.1922 37.9113 92.2783C37.0562 92.1284 36.18 92.0966 35.3221 91.9722C35.2812 92.1276 35.253 92.286 35.2378 92.4459ZM31.1061 94.1821C31.0635 94.341 31.0456 94.511 31.0286 94.6726C30.7324 97.5678 30.4115 100.452 30.1238 103.348L32.7336 103.622C32.8582 102.602 32.9479 101.587 33.0639 100.567C33.2611 98.5305 33.5188 96.4921 33.6905 94.4522C32.8281 94.3712 31.9666 94.2811 31.1061 94.1821Z" fill="#316474"></path><path d="M17.892 48.4889C17.7988 49.3842 18.4576 50.1945 19.3597 50.2923C20.2665 50.3906 21.0855 49.7332 21.1792 48.8333C21.2724 47.938 20.6136 47.1277 19.7115 47.0299C18.8047 46.9316 17.9857 47.5889 17.892 48.4889Z" fill="#FFFFFF" stroke="#316474"></path><path d="M231.807 136.678L197.944 139.04C197.65 139.06 197.404 139.02 197.249 138.96C197.208 138.945 197.179 138.93 197.16 138.918L196.456 128.876C196.474 128.862 196.5 128.843 196.538 128.822C196.683 128.741 196.921 128.668 197.215 128.647L231.078 126.285C231.372 126.265 231.618 126.305 231.773 126.365C231.814 126.381 231.842 126.395 231.861 126.407L232.566 136.449C232.548 136.463 232.522 136.482 232.484 136.503C232.339 136.584 232.101 136.658 231.807 136.678Z" fill="#FFFFFF" stroke="#316474"></path><path d="M283.734 125.679L144.864 135.363C141.994 135.563 139.493 133.4 139.293 130.54L133.059 41.6349C132.858 38.7751 135.031 36.2858 137.903 36.0856L276.773 26.4008C279.647 26.2005 282.144 28.364 282.345 31.2238L288.578 120.129C288.779 122.989 286.607 125.478 283.734 125.679Z" fill="#EEFAF6"></path><path d="M144.864 135.363C141.994 135.563 139.493 133.4 139.293 130.54L133.059 41.6349C132.858 38.7751 135.031 36.2858 137.903 36.0856L276.773 26.4008C279.647 26.2004 282.144 28.364 282.345 31.2238L288.578 120.129C288.779 122.989 286.607 125.478 283.734 125.679" stroke="#316474" fill="none"></path><path d="M278.565 121.405L148.68 130.463C146.256 130.632 144.174 128.861 144.012 126.55L138.343 45.695C138.181 43.3846 139.994 41.3414 142.419 41.1723L272.304 32.1142C274.731 31.945 276.81 33.7166 276.972 36.0271L282.641 116.882C282.803 119.193 280.992 121.236 278.565 121.405Z" fill="#dfedf3" stroke="#316474"></path><path d="M230.198 129.97L298.691 125.193L299.111 131.189C299.166 131.97 299.013 132.667 298.748 133.161C298.478 133.661 298.137 133.887 297.825 133.909L132.794 145.418C132.482 145.44 132.113 145.263 131.777 144.805C131.445 144.353 131.196 143.684 131.141 142.903L130.721 136.907L199.215 132.131C199.476 132.921 199.867 133.614 200.357 134.129C200.929 134.729 201.665 135.115 202.482 135.058L227.371 133.322C228.188 133.265 228.862 132.782 229.345 132.108C229.758 131.531 230.05 130.79 230.198 129.97Z" fill="#0AA0EA" stroke="#316474"></path><path d="M230.367 129.051L300.275 124.175L300.533 127.851C300.591 128.681 299.964 129.403 299.13 129.461L130.858 141.196C130.025 141.254 129.303 140.627 129.245 139.797L128.987 136.121L198.896 131.245C199.485 132.391 200.709 133.147 202.084 133.051L227.462 131.281C228.836 131.185 229.943 130.268 230.367 129.051Z" fill="#EEFAF6" stroke="#316474"></path><ellipse rx="15.9969" ry="15.9971" transform="matrix(0.997577 -0.0695704 0.0699429 0.997551 210.659 83.553)" fill="#0AA0EA" stroke="#316474"></ellipse><path d="M208.184 87.1094L204.777 84.3593C204.777 84.359 204.776 84.3587 204.776 84.3583C203.957 83.6906 202.744 83.8012 202.061 84.6073C201.374 85.4191 201.486 86.6265 202.31 87.2997L202.312 87.3011L207.389 91.4116C207.389 91.4119 207.389 91.4121 207.389 91.4124C208.278 92.1372 209.611 91.9373 210.242 90.9795L218.283 78.77C218.868 77.8813 218.608 76.6968 217.71 76.127C216.817 75.5606 215.624 75.8109 215.043 76.6939L208.184 87.1094Z" fill="#FFFFFF" stroke="#316474"></path></svg>

<svg xmlns="http://www.w3.org/2000/svg" width="360" height="204" fill="none" viewBox="0 0 303 172"><path fill="#364147" fill-rule="evenodd" d="M229.565 160.229c32.647-10.984 57.366-41.988 53.825-86.81-5.381-68.1-71.025-84.993-111.918-64.932C115.998 35.7 108.972 40.16 69.239 40.16c-29.594 0-59.726 14.254-63.492 52.791-2.73 27.933 8.252 52.315 48.89 64.764 73.962 22.657 143.38 13.128 174.928 2.513Z" clip-rule="evenodd"/><path fill="#F1F1F2" fill-opacity=".38" fill-rule="evenodd" d="M131.589 68.942h.01c6.261 0 11.336-5.263 11.336-11.756S137.86 45.43 131.599 45.43c-5.081 0-9.381 3.466-10.822 8.242a7.302 7.302 0 0 0-2.404-.405c-4.174 0-7.558 3.51-7.558 7.838s3.384 7.837 7.558 7.837h13.216ZM105.682 128.716c3.504 0 6.344-2.808 6.344-6.27 0-3.463-2.84-6.27-6.344-6.27-1.156 0-2.24.305-3.173.839v-.056c0-6.492-5.326-11.756-11.896-11.756-5.29 0-9.775 3.413-11.32 8.132a8.025 8.025 0 0 0-2.163-.294c-4.38 0-7.93 3.509-7.93 7.837 0 4.329 3.55 7.838 7.93 7.838h28.552Z" clip-rule="evenodd"/><rect width="50.58" height="100.068" x=".445" y=".55" fill="#0AA0EA" stroke="#316474" rx="7.5" transform="rotate(6 -391.775 121.507) skewX(.036)"/><rect width="50.403" height="99.722" x=".445" y=".55" fill="#EEFAF6" stroke="#316474" rx="7.5" transform="rotate(6 -356.664 123.217) skewX(.036)"/><path fill="#dfedf3" stroke="#316474" d="m57.16 51.735-8.568 82.024a5.495 5.495 0 0 1-6.042 4.895l-32.97-3.465a5.504 5.504 0 0 1-4.897-6.045l8.569-82.024a5.496 5.496 0 0 1 6.041-4.895l5.259.553 22.452 2.36 5.259.552a5.504 5.504 0 0 1 4.898 6.045Z"/><path fill="#316474" d="M26.2 102.937c.863.082 1.732.182 2.602.273.238-2.178.469-4.366.69-6.546l-2.61-.274c-.238 2.178-.477 4.365-.681 6.547Zm-2.73-9.608 2.27-1.833 1.837 2.264 1.135-.917-1.838-2.266 2.27-1.833-.92-1.133-2.269 1.834-1.837-2.264-1.136.916 1.839 2.265-2.27 1.835.92 1.132Zm-.816 5.286c-.128 1.3-.265 2.6-.41 3.899.877.109 1.748.183 2.626.284.146-1.31.275-2.614.413-3.925-.878-.092-1.753-.218-2.629-.258Zm16.848-8.837c-.506 4.801-1.019 9.593-1.516 14.396.88.083 1.748.192 2.628.267.496-4.794 1-9.578 1.513-14.37-.864-.143-1.747-.192-2.625-.293Zm-4.264 2.668c-.389 3.772-.803 7.541-1.183 11.314.87.091 1.74.174 2.601.273.447-3.912.826-7.84 1.255-11.755-.855-.15-1.731-.181-2.589-.306-.04.156-.069.314-.084.474Zm-4.132 1.736c-.043.159-.06.329-.077.49-.297 2.896-.617 5.78-.905 8.676l2.61.274c.124-1.02.214-2.035.33-3.055.197-2.036.455-4.075.627-6.115-.863-.08-1.724-.17-2.585-.27Z"/><path fill="#FFF" stroke="#316474" d="M17.892 48.489a1.652 1.652 0 0 0 1.468 1.803 1.65 1.65 0 0 0 1.82-1.459 1.652 1.652 0 0 0-1.468-1.803 1.65 1.65 0 0 0-1.82 1.459ZM231.807 136.678l-33.863 2.362c-.294.02-.54-.02-.695-.08a.472.472 0 0 1-.089-.042l-.704-10.042a.61.61 0 0 1 .082-.054c.145-.081.383-.154.677-.175l33.863-2.362c.294-.02.54.02.695.08.041.016.069.03.088.042l.705 10.042a.61.61 0 0 1-.082.054 1.678 1.678 0 0 1-.677.175Z"/><path fill="#EEFAF6" d="m283.734 125.679-138.87 9.684c-2.87.2-5.371-1.963-5.571-4.823l-6.234-88.905c-.201-2.86 1.972-5.35 4.844-5.55l138.87-9.684c2.874-.2 5.371 1.963 5.572 4.823l6.233 88.905c.201 2.86-1.971 5.349-4.844 5.55Z"/><path stroke="#316474" d="M144.864 135.363c-2.87.2-5.371-1.963-5.571-4.823l-6.234-88.905c-.201-2.86 1.972-5.35 4.844-5.55l138.87-9.684c2.874-.2 5.371 1.963 5.572 4.823l6.233 88.905c.201 2.86-1.971 5.349-4.844 5.55"/><path fill="#dfedf3" stroke="#316474" d="m278.565 121.405-129.885 9.058c-2.424.169-4.506-1.602-4.668-3.913l-5.669-80.855c-.162-2.31 1.651-4.354 4.076-4.523l129.885-9.058c2.427-.169 4.506 1.603 4.668 3.913l5.669 80.855c.162 2.311-1.649 4.354-4.076 4.523Z"/><path fill="#0AA0EA" stroke="#316474" d="m230.198 129.97 68.493-4.777.42 5.996c.055.781-.098 1.478-.363 1.972-.27.5-.611.726-.923.748l-165.031 11.509c-.312.022-.681-.155-1.017-.613-.332-.452-.581-1.121-.636-1.902l-.42-5.996 68.494-4.776c.261.79.652 1.483 1.142 1.998.572.6 1.308.986 2.125.929l24.889-1.736c.817-.057 1.491-.54 1.974-1.214.413-.577.705-1.318.853-2.138Z"/><path fill="#EEFAF6" stroke="#316474" d="m230.367 129.051 69.908-4.876.258 3.676a1.51 1.51 0 0 1-1.403 1.61l-168.272 11.735a1.51 1.51 0 0 1-1.613-1.399l-.258-3.676 69.909-4.876a3.323 3.323 0 0 0 3.188 1.806l25.378-1.77a3.32 3.32 0 0 0 2.905-2.23Z"/><circle r="15.997" fill="#0AA0EA" stroke="#316474" transform="rotate(-3.989 1304.861 -2982.552) skewX(.021)"/><path fill="#FFF" stroke="#316474" d="m208.184 87.11-3.407-2.75-.001-.002a1.952 1.952 0 0 0-2.715.25 1.89 1.89 0 0 0 .249 2.692l.002.001 5.077 4.11v.001a1.95 1.95 0 0 0 2.853-.433l8.041-12.209a1.892 1.892 0 0 0-.573-2.643 1.95 1.95 0 0 0-2.667.567l-6.859 10.415Z"/></svg>
